X:1
T:Myrtle Beach, 76.76 D
T:Myrtle Beach, 76.76 D
T:Daniel Brink Towner, 1899
T:Public Domain Courtesy of the Cyber Hymnal™
C:Daniel Brink Towner, 1899
Z:Public Domain
Z:Courtesy of the Cyber Hymnal™
%%score ( 1 2 ) ( 3 4 )
L:1/8
Q:1/4=112
M:4/4
K:A
V:1 treble 
V:2 treble 
V:3 bass 
V:4 bass 
V:1
 E2 | A3 E C2 E2 | ([Ec]3 [DB]) [CA]2 [CA]2 | [FA]3 [DF] [FA]2 [DF]2 | [CE]6 [CE]2 | %5
 [DE]3 [EG] [GB]2 [EG]2 | (A3 B) [Ec]2 [Ec]2 | [^DB]3 [EG] [FA]2 [DF]2 | E6 E2 | A3 E C2 E2 | %10
 ([Ec]3 [DB]) [CA]2 [CE]2 | [DF]2 [DG]2 [EA]2 [FB]2 | [^Ec]6 [Fc]2 | [Ge]3 [Gd] [Ac]2 [GB]2 | %14
 ([FA]2 [^EG]2) F2 [Fd]2 | [Ec]3 [EB] [EA]2 [DG]2 | [CA]6 |] %17
V:2
 E2 | A3 E C2 E2 | x8 | x8 | x8 | x8 | E4 x4 | x8 | E6 E2 | A3 E C2 E2 | x8 | x8 | x8 | x8 | %14
 x4 F2 x2 | x8 | x6 |] %17
V:3
 E,2 | A,3 E, C,2 E,2 | A,4 [A,E]2 [A,E]2 | [D,D]3 [D,A,] [D,D]2 [D,A,]2 | [A,,A,]6 [A,,A,]2 | %5
 [E,G,]3 [E,B,] [E,D]2 [D,B,]2 | ([C,A,]3 [B,,G,]) [A,,A,]2 [A,,A,]2 | %7
 [B,,F,]3 [B,,B,] [B,,B,]2 [B,,A,]2 | [E,G,]6 E,2 | A,3 E, C,2 E,2 | A,4 A,2 A,2 | %11
 [D,A,]2 [B,,B,]2 [A,,C]2 (B,F,) | [C,G,]6 [F,A,]2 | [E,B,]3 [E,B,] A,2 [E,D]2 | %14
 ([F,C]2 [C,B,]2) [D,A,]2 [D,A,]2 | [E,A,]3 [E,D] [E,C]2 [E,B,]2 | [A,,A,]6 |] %17
V:4
 E,2 | A,3 E, C,2 E,2 | A,4 x4 | x8 | x8 | x8 | x8 | x8 | x6 E,2 | A,3 E, C,2 E,2 | A,4 A,2 A,2 | %11
 x6 D,2 | x8 | x4 A,2 x2 | x8 | x8 | x6 |] %17

